icon-themes/elementary_svg/cmd/sc_substract.svg

<?xml version="1.0" encoding="UTF-8" standalone="no"?>
<svg
   xmlns:dc="http://purl.org/dc/elements/1.1/"
   xmlns:cc="http://creativecommons.org/ns#"
   xmlns:rdf="http://www.w3.org/1999/02/22-rdf-syntax-ns#"
   xmlns:svg="http://www.w3.org/2000/svg"
   xmlns="http://www.w3.org/2000/svg"
   xmlns:xlink="http://www.w3.org/1999/xlink"
   xmlns:sodipodi="http://sodipodi.sourceforge.net/DTD/sodipodi-0.dtd"
   xmlns:inkscape="http://www.inkscape.org/namespaces/inkscape"
   version="1.1"
   width="16"
   height="16"
   id="svg7435"
   sodipodi:docname="sc_substract.svg"
   inkscape:export-filename="/home/rizmut/Dokumen/Rizmut/Github/libreoffice-style-elementary/images_elementary/cmd/sc_substract.png"
   inkscape:export-xdpi="96"
   inkscape:export-ydpi="96"
   inkscape:version="0.92.3 (unknown)">
  <sodipodi:namedview
     pagecolor="#ffffff"
     bordercolor="#666666"
     borderopacity="1"
     objecttolerance="10"
     gridtolerance="10"
     guidetolerance="10"
     inkscape:pageopacity="0"
     inkscape:pageshadow="2"
     inkscape:window-width="1366"
     inkscape:window-height="706"
     id="namedview8"
     showgrid="true"
     inkscape:zoom="7.375"
     inkscape:cx="-22.942848"
     inkscape:cy="9.5054927"
     inkscape:window-x="0"
     inkscape:window-y="0"
     inkscape:window-maximized="1"
     inkscape:current-layer="svg7435"
     inkscape:snap-global="true">
    <inkscape:grid
       type="xygrid"
       id="grid1597" />
  </sodipodi:namedview>
  <defs
     id="defs7437">
    <linearGradient
       x1="2035.1652"
       y1="3208.0737"
       x2="2035.1652"
       y2="3241.9966"
       id="linearGradient11527-6"
       xlink:href="#linearGradient27416-1-5"
       gradientUnits="userSpaceOnUse"
       gradientTransform="matrix(0.57484957,0,0,0.42975531,-1187.5396,-1382.1785)" />
    <linearGradient
       id="linearGradient27416-1-5">
      <stop
         id="stop27420-2-2"
         style="stop-color:#64baff;stop-opacity:1"
         offset="0" />
      <stop
         id="stop27422-3-2"
         style="stop-color:#3689e6;stop-opacity:1"
         offset="1" />
    </linearGradient>
    <linearGradient
       x1="71.204407"
       y1="6.2375584"
       x2="71.204407"
       y2="44.340794"
       id="linearGradient12398"
       xlink:href="#linearGradient4011-0-8-3"
       gradientUnits="userSpaceOnUse"
       gradientTransform="matrix(0.35135153,0,0,0.35135153,-40.729109,-5.3160845)" />
    <linearGradient
       id="linearGradient4011-0-8-3">
      <stop
         id="stop4013-2-3-6"
         style="stop-color:#ffffff;stop-opacity:1"
         offset="0" />
      <stop
         id="stop4015-7-1-68"
         style="stop-color:#ffffff;stop-opacity:0.23529412"
         offset="0.507761" />
      <stop
         id="stop4017-13-5-6"
         style="stop-color:#ffffff;stop-opacity:0.15686275"
         offset="0.83456558" />
      <stop
         id="stop4019-92-5-3"
         style="stop-color:#ffffff;stop-opacity:0.39215687"
         offset="1" />
    </linearGradient>
    <linearGradient
       inkscape:collect="always"
       xlink:href="#linearGradient27416-1-5"
       id="linearGradient1580"
       gradientUnits="userSpaceOnUse"
       x1="6.7796612"
       y1="0.13559322"
       x2="7.4576273"
       y2="16.40678" />
  </defs>
  <metadata
     id="metadata7440">
    <rdf:RDF>
      <cc:Work
         rdf:about="">
        <dc:format>image/svg+xml</dc:format>
        <dc:type
           rdf:resource="http://purl.org/dc/dcmitype/StillImage" />
        <dc:title></dc:title>
      </cc:Work>
    </rdf:RDF>
  </metadata>
  <path
     style="fill:none;fill-opacity:1;stroke:#002e99;stroke-width:1;stroke-linecap:butt;stroke-linejoin:round;stroke-miterlimit:0;stroke-dasharray:none;stroke-dashoffset:0;stroke-opacity:1;opacity:0.5"
     d="m 10.001752,1.1150768 c -0.3910315,0 -0.7646675,0.060428 -1.1288861,0.1473968 -0.084672,0.012906 -0.1665483,0.01998 -0.2531757,0.036416 -0.1131286,0.033954 -0.2135403,0.090338 -0.322539,0.1317901 -0.068679,0.025721 -0.1357228,0.052807 -0.2028874,0.081502 C 7.8928111,1.5993263 7.6999511,1.6972387 7.5150809,1.808709 7.4348737,1.8565734 7.3581197,1.9073143 7.28098,1.959574 7.1234682,2.0673167 6.9727993,2.1802882 6.8301191,2.3046561 6.7373983,2.384622 6.6512495,2.4694588 6.5648047,2.5560977 6.4516212,2.6707642 6.3433398,2.7867065 6.2422658,2.9115842 6.1452539,3.0299914 6.0574785,3.1536223 5.9717492,3.2809433 5.9019947,3.3857963 5.8338362,3.4900587 5.7723299,3.6000142 5.6786405,3.7653625 5.5986293,3.9366597 5.5243564,4.113302 5.4895116,4.1972635 5.4556756,4.2804924 5.4255138,4.3664778 5.3513711,4.5747384 5.2925575,4.7879036 5.2469035,5.0080876 c -0.013213,0.065188 -0.024135,0.1300277 -0.034682,0.1959511 -0.01943,0.117704 -0.055019,0.2299106 -0.065895,0.3502843 0.0071,0.038896 0.018566,0.074102 0.026011,0.1127152 -0.026294,0.4198084 -0.018885,0.8459578 0.069363,1.2780173 0.4937897,2.4175974 2.6993719,4.0459745 5.0947285,3.8912775 0.03734,0.005 0.07141,0.01275 0.109247,0.01734 0.160235,-0.01448 0.311057,-0.05716 0.466468,-0.08671 0.03067,-0.0057 0.06121,-0.0076 0.09191,-0.01388 0.01539,-0.0031 0.02975,-0.0089 0.04509,-0.01214 0.213747,-0.04699 0.420275,-0.106421 0.622534,-0.180345 0.09485,-0.03389 0.18754,-0.06994 0.279187,-0.109247 0.207636,-0.09076 0.403415,-0.198042 0.59479,-0.315603 0.07899,-0.04786 0.158378,-0.09365 0.2341,-0.1456619 0.149546,-0.1039068 0.288136,-0.2186098 0.424851,-0.3381463 0.09488,-0.08225 0.189509,-0.1624361 0.277452,-0.2514414 0.105748,-0.1077517 0.201089,-0.2227311 0.296528,-0.3398796 0.09879,-0.1204248 0.195841,-0.2402014 0.282656,-0.3693593 0.0647,-0.096986 0.120854,-0.1982761 0.17861,-0.2999959 0.09392,-0.1638158 0.182045,-0.3288363 0.256643,-0.5028834 0.03496,-0.082771 0.0632,-0.1681395 0.09364,-0.2531757 0.07699,-0.211037 0.141544,-0.4251928 0.189014,-0.646812 0.02171,-0.1047958 0.03891,-0.2101824 0.05376,-0.3173368 0.03043,-0.2087401 0.04739,-0.418623 0.05029,-0.6329394 1.09e-4,-0.013418 0.0017,-0.026426 0.0017,-0.039877 0,-0.023979 -0.0031,-0.0472 -0.0035,-0.071097 -0.0015,-0.1652217 0.01002,-0.3288328 -0.0087,-0.4959471 -0.01114,-0.026911 -0.02517,-0.049582 -0.03642,-0.076299 C 14.520426,2.9638813 12.47863,1.1150768 10.001752,1.1150768 Z"
     id="rect8333"
     inkscape:connector-curvature="0"
     sodipodi:nodetypes="scccccccccccccccccscccccccccccccccccccscccs" />
  <path
     style="fill:url(#linearGradient1580);fill-opacity:1;stroke:#002e99;stroke-width:1;stroke-linecap:butt;stroke-linejoin:round;stroke-miterlimit:0;stroke-dasharray:none;stroke-dashoffset:0;stroke-opacity:1"
     d="M 4.53125,5.5 H 0.5 v 10 h 10 V 11.46875 L 9.9980469,10.966797 C 7.2457718,10.967385 5.0141627,8.7366501 5.0136719,5.984375 Z"
     id="path1576"
     inkscape:connector-curvature="0"
     sodipodi:nodetypes="cccccccc" />
  <path
     style="opacity:0.3;fill:none;stroke:#ffffff;stroke-width:1;stroke-linecap:round;stroke-linejoin:round;stroke-miterlimit:0;stroke-dasharray:none;stroke-dashoffset:0;stroke-opacity:1"
     d="m 1.5,6.5 v 8 h 8 V 11.973087 C 6.4410179,11.745086 3.9605254,8.8809544 4,6.4520606 Z"
     id="path1630"
     inkscape:connector-curvature="0"
     sodipodi:nodetypes="cccccc" />
</svg>

<svg xmlns="http://www.w3.org/2000/svg" xmlns:xlink="http://www.w3.org/1999/xlink" width="16" height="16"><defs><linearGradient id="a"><stop offset="0" stop-color="#64baff"/><stop offset="1" stop-color="#3689e6"/></linearGradient><linearGradient id="b"><stop offset="0" stop-color="#fff"/><stop offset=".508" stop-color="#fff" stop-opacity=".235"/><stop offset=".835" stop-color="#fff" stop-opacity=".157"/><stop offset="1" stop-color="#fff" stop-opacity=".392"/></linearGradient><linearGradient xlink:href="#a" id="c" gradientUnits="userSpaceOnUse" x1="6.78" y1=".136" x2="7.458" y2="16.407"/></defs><path d="M10.002 1.115c-.39 0-.765.06-1.13.147-.084.013-.166.02-.252.037-.113.033-.214.09-.323.13-.07.026-.136.053-.203.082-.2.087-.394.185-.58.297-.08.047-.156.097-.233.15-.157.107-.307.22-.45.345-.093.08-.18.164-.265.25-.113.116-.222.232-.323.357-.097.118-.185.242-.27.37-.07.104-.138.208-.2.318-.093.165-.173.337-.248.513-.034.084-.068.167-.098.253-.075.21-.133.422-.18.642l-.034.196c-.02.118-.055.23-.066.35.007.04.02.074.026.113-.026.42-.02.846.07 1.278.493 2.418 2.7 4.046 5.094 3.89l.11.02c.16-.016.31-.058.466-.088.03-.006.06-.008.092-.014.015-.003.03-.01.045-.012.213-.046.42-.105.622-.18.095-.033.187-.07.28-.11.207-.09.402-.197.594-.314.08-.048.158-.094.234-.146.15-.104.288-.22.425-.338.094-.082.19-.162.277-.252.106-.107.2-.222.297-.34.097-.12.194-.24.28-.37.066-.096.122-.197.18-.3.094-.163.182-.328.256-.502.035-.082.064-.168.094-.253.077-.21.142-.425.19-.647.02-.104.038-.21.053-.317.03-.208.047-.418.05-.632l.002-.04c0-.024-.003-.047-.004-.07 0-.166.01-.33-.007-.497-.01-.026-.025-.048-.037-.075-.316-2.39-2.357-4.24-4.834-4.24z" fill="none" stroke="#002e99" stroke-linejoin="round" stroke-miterlimit="0" opacity=".5"/><path d="M4.53 5.5H.5v10h10v-4.03l-.502-.503c-2.752 0-4.984-2.23-4.984-4.983z" fill="url(#c)" stroke="#002e99" stroke-linejoin="round" stroke-miterlimit="0"/><path d="M1.5 6.5v8h8v-2.527C6.44 11.745 3.96 8.88 4 6.453z" opacity=".3" fill="none" stroke="#fff" stroke-linecap="round" stroke-linejoin="round" stroke-miterlimit="0"/></svg>
